images/svg/logo-b-o-space.svg

<svg width="99" height="124" viewBox="0 0 99 124" fill="none" xmlns="http://www.w3.org/2000/svg">
<path d="M83.4701 58.4174C84.9486 57.1269 86.3015 55.7133 87.5089 54.1932C91.5831 49.0626 94 42.7296 94 35.8959C94 18.9034 79.0671 5 60.8159 5H40.5365H18.4137C12.33 5 7.35183 9.97765 7.35183 16.0614V35.8959V59.7536C9.0634 57.4699 11.0283 55.3333 13.2136 53.3724C19.8998 47.3723 28.6472 43.0123 38.5082 41.0899V39.9676V39.311V31.0146H46.8046H59.8942C64.4569 31.0146 68.1901 34.7478 68.1901 39.311V39.9676C68.1901 40.9324 68.0219 41.8591 67.7154 42.7219C67.0313 44.6489 65.6542 46.2535 63.8854 47.2319C59.497 45.9961 54.799 45.3253 49.9151 45.3253C45.9691 45.3253 42.1462 45.7651 38.5077 46.5849C30.1084 48.4774 22.7043 52.4082 17.0918 57.7091C13.5207 61.0816 10.6746 65.0073 8.7604 69.3157C6.97688 73.3291 6 77.6729 6 82.2087C6 102.579 25.6613 119.092 49.9151 119.092C74.169 119.092 93.8298 102.579 93.8298 82.2087C93.8298 79.3059 93.4295 76.4811 92.6745 73.7719C91.0709 68.0175 87.8631 62.7835 83.4701 58.4174ZM49.9151 97.625C40.4285 97.625 32.7381 90.7225 32.7381 82.2077C32.7381 79.6013 33.4596 77.1469 34.7319 74.995C37.6154 70.1152 43.3323 66.7914 49.9151 66.7914C56.4979 66.7914 62.2148 70.1157 65.0984 74.995C66.3706 77.1469 67.0921 79.6018 67.0921 82.2077C67.0921 90.7225 59.4017 97.625 49.9151 97.625Z" fill="white"/>
</svg>

<svg xmlns="http://www.w3.org/2000/svg" width="99" height="124" fill="none">
  <path fill="#fff" d="M83.47 58.417a32.172 32.172 0 0 0 4.039-4.224C91.583 49.063 94 42.73 94 35.896 94 18.903 79.067 5 60.816 5H18.414C12.33 5 7.352 9.978 7.352 16.061v43.693a44.223 44.223 0 0 1 5.862-6.382c6.686-6 15.433-10.36 25.294-12.282V31.015h21.387c4.562 0 8.295 3.733 8.295 8.296v.657c0 .964-.168 1.891-.475 2.754a8.37 8.37 0 0 1-3.83 4.51 51.54 51.54 0 0 0-13.97-1.907c-3.946 0-7.769.44-11.407 1.26-8.4 1.892-15.804 5.823-21.416 11.124-3.571 3.373-6.417 7.298-8.332 11.607C6.977 73.329 6 77.673 6 82.209c0 20.37 19.661 36.883 43.915 36.883 24.254 0 43.915-16.513 43.915-36.883 0-2.903-.4-5.728-1.156-8.437-1.603-5.755-4.81-10.989-9.204-15.355ZM49.915 97.625c-9.486 0-17.177-6.903-17.177-15.417 0-2.607.722-5.061 1.994-7.213 2.883-4.88 8.6-8.204 15.183-8.204s12.3 3.325 15.183 8.204c1.273 2.152 1.994 4.607 1.994 7.213 0 8.514-7.69 15.417-17.177 15.417Z"/>
</svg>
